icons/svg/table-row-plus-before.svg

<svg xmlns="http://www.w3.org/2000/svg" version="1.1" baseProfile="full" width="24" height="24" viewBox="0 0 24.00 24.00" xml:space="preserve"><path fill="#000" fill-opacity="1" stroke-width=".2" stroke-linejoin="round" d="M22 14c0-1.105-.895-2-2-2H4c-1.105 0-2 .895-2 2v7h2v-2h4v2h2v-2h4v2h2v-2h4v2h2v-7zM4 14h4v3H4v-3zm6 0h4v3h-4v-3zm10 0v3h-4v-3h4zm-9-4h2V7h3V5h-3V2h-2v3H8v2h3v3z"/></svg>

﻿<?xml version="1.0" encoding="utf-8"?>
<!DOCTYPE svg PUBLIC "-//W3C//DTD SVG 1.1//EN" "http://www.w3.org/Graphics/SVG/1.1/DTD/svg11.dtd">
<svg xmlns="http://www.w3.org/2000/svg" xmlns:xlink="http://www.w3.org/1999/xlink" version="1.1" baseProfile="full" width="24" height="24" viewBox="0 0 24.00 24.00" enable-background="new 0 0 24.00 24.00" xml:space="preserve">
	<path fill="#000000" fill-opacity="1" stroke-width="0.2" stroke-linejoin="round" d="M 22,14C 22,12.8954 21.1045,12 20,12L 4,12C 2.89543,12 2,12.8954 2,14L 2,21L 4,21L 4,19L 8,19L 8,21L 10,21L 10,19L 14,19L 14,21L 16,21L 16,19L 20,19L 20,21L 22,21L 22,14 Z M 4,14L 7.99998,14L 7.99998,17L 4,17L 4,14 Z M 9.99997,14L 14,14L 14,17L 9.99997,17L 9.99997,14 Z M 20,14L 20,17L 16,17L 16,14L 20,14 Z M 11,10L 13,10L 13,7L 16,7L 16,5L 13,5L 13,2L 11,2L 11,5L 8,5L 8,7L 11,7L 11,10 Z "/>
</svg>
